X: 42
T: No_136_You_Beg_for_Food_Like_a_Woman.krn
N: Derived from No_136_You_Beg_for_Food_Like_a_Woman.krn
%%abc-version 2.0
%%abcx-abcm2ps-target-version 5.9.1 (29 Sep 2008)
%%abc-creator hum2abc beta
%%abcx-conversion-date 2019/03/15 08:37:56
%%humdrum-veritas 2254818646
%%humdrum-veritas-data 1682424201
%%linebreak <none>
%%barnumbers 0
L: 1/4
M: 3/4
K: E clef=bass
[K:clef=bass][M:3/4]CCB, ||  
[M:2/4]C2 | 
(B,3/F,/) ||  
[M:3/4]G,/F,/E,C,/B,,/ ||  
[M:2/4]B,,z ||  
[M:3/4]G,G,F,/E,/ | 
G,2G, ||  
[M:2/4](G,/E,/)F, ||  
[M:3/4]E,2C,/B,,/ ||  
[M:2/4]B,,z ||  
[M:3/4]G,G,F,/E,/ ||  
[M:2/4]G,G, ||  
[M:3/4](G,E,)F, | 
E,E,C,/B,,/ | 
E,2z |]  



